22x22/places/folder-black-torrent.svg

<svg xmlns="http://www.w3.org/2000/svg" width="22" height="22" version="1">
 <rect style="opacity:0.2" width="20" height="12" x="1" y="8.5" rx="1" ry="1"/>
 <path style="fill:#17191e" d="M 1,16 C 1,16.554 1.446,17 2,17 H 20 C 20.554,17 21,16.554 21,16 V 5 C 21,4.446 20.554,4 20,4 H 11 C 9.5,4 9,2 7.5,2 H 2 C 1.446,2 1,2.446 1,3"/>
 <rect style="opacity:0.2" width="20" height="12" x="1" y="7.5" rx="1" ry="1"/>
 <rect style="fill:#dcdcdc" width="16" height="8" x="3" y="6" rx="1" ry="1"/>
 <rect style="fill:#4f4f4f" width="20" height="12" x="1" y="8" rx="1" ry="1"/>
 <path style="opacity:0.1;fill:#f4f4f7" d="M 2,2 C 1.446,2 1,2.446 1,3 V 3.5 C 1,2.946 1.446,2.5 2,2.5 H 7.5 C 9,2.5 9.5,4.5 11,4.5 H 20 C 20.554,4.5 21,4.946 21,5.5 V 5 C 21,4.446 20.554,4 20,4 H 11 C 9.5,4 9,2 7.5,2 Z"/>
 <path style="fill:#b2bfs9" d="M 11.5,10 C 9.567003,10 8,11.567003 8,13.5 8,15.432997 9.567003,17 11.5,17 l 9.5,0 0,-1 -9.5,0 C 10.119288,16 9,14.880712 9,13.5 9,12.119288 10.119288,11 11.5,11 c 0.344234,3.94e-4 0.684677,0.07089 1,0.208984 l 0,-1.060546 C 12.175656,10.050498 11.838808,10.001141 11.5,10 Z m 0,2 c -0.828427,0 -1.5,0.671573 -1.5,1.5 0,0.828427 0.671573,1.5 1.5,1.5 l 9.5,0 0,-1 -6.5,0 -1.587891,0 L 11.5,14 C 11.223858,14 11,13.776142 11,13.5 11,13.223858 11.223858,13 11.5,13 l 1.408203,0 C 12.701611,12.418655 12.152215,12 11.5,12 Z"/>
</svg>

<svg xmlns="http://www.w3.org/2000/svg" width="22" height="22" version="1"><rect style="opacity:.2" width="20" height="12" x="1" y="8.5" rx="1" ry="1"/><path style="fill:#17191e" d="M1 16c0 .554.446 1 1 1h18c.554 0 1-.446 1-1V5c0-.554-.446-1-1-1h-9C9.5 4 9 2 7.5 2H2c-.554 0-1 .446-1 1"/><rect style="opacity:.2" width="20" height="12" x="1" y="7.5" rx="1" ry="1"/><rect style="fill:#dcdcdc" width="16" height="8" x="3" y="6" rx="1" ry="1"/><rect style="fill:#4f4f4f" width="20" height="12" x="1" y="8" rx="1" ry="1"/><path style="opacity:.1;fill:#f4f4f7" d="M2 2c-.554 0-1 .446-1 1v.5c0-.554.446-1 1-1h5.5c1.5 0 2 2 3.5 2h9c.554 0 1 .446 1 1V5c0-.554-.446-1-1-1h-9C9.5 4 9 2 7.5 2z"/><path style="fill:#b2bfs9" d="M11.5 10a3.5 3.5 0 1 0 0 7H21v-1h-9.5a2.5 2.5 0 1 1 1-4.791v-1.06a3.5 3.5 0 0 0-1-.149zm0 2a1.5 1.5 0 0 0 0 3H21v-1h-9.5a.5.5 0 0 1 0-1h1.408c-.206-.581-.756-1-1.408-1z"/></svg>
